X: 36264
T: Seaman's
R: hornpipe
M: 4/4
K: Gminor
(3FGA|:BfdB AfcA|BA (3Bcd F2 FD|EGBe DFBd|cBAc BAGF|
dfdB AfcA|BA (3Bcd F2 FD|EGBe DFBd|1 cBAc B2 (3ABc:|2 cBAc Bcde||
|:fBAB cB (3dcB|fBAB (3dcB (3dcB|fBAB gf=ef|(3gab =eg f_edc|
Bbfd (3efg cA|BA (3 Bcd F2 FD|EGBe DFBd|1 cBAc Bcde:|2 cBAc B2 (3FGA||
|:B2 (3FGA B2 (3FGA|BFGA BcdB|c2 (3GAB c2 (3GAB|cGAB cdec|
d^cdf edeg|f=efa g2 f_e|(3ded Bd (3 cdc Ac|1 BABc B2 (3 FGA:|2 BABc B2 B2||
|:gfga bagf|d^cde dBGA|BABd cBce|d^cdB G2 fe|
d^cdf edeg|f=efa g2 f_e|(3ded Bd (3 cdc Ac|BABc B2 B2:|

